public/images/barber-pole-gold.svg

<svg enable-background="new 0 0 35 92" height="92" viewBox="0 0 35 92" width="35" xmlns="http://www.w3.org/2000/svg" xmlns:xlink="http://www.w3.org/1999/xlink"><linearGradient id="a"><stop offset=".0545" stop-color="#7e5a43"/><stop offset=".523" stop-color="#c96"/><stop offset=".9415" stop-color="#7e5a43"/></linearGradient><linearGradient id="b" gradientUnits="userSpaceOnUse" x1="3.7798" x2="31.793" xlink:href="#a" y1="28.6436" y2="28.6436"/><linearGradient id="c" gradientUnits="userSpaceOnUse" x1=".2979" x2="34.7031" xlink:href="#a" y1="65.8086" y2="65.8086"/><linearGradient id="d" gradientUnits="userSpaceOnUse" x1=".2969" x2="34.3262" xlink:href="#a" y1="10.0439" y2="10.0439"/><path d="m31.793 39.839c-.018-12.57-.032-23.756-.032-25.133v1.963l-27.981 12.17v13.743l27.981-11.849z" fill="url(#b)"/><path d="m31.847 77.641s-.028-20.192-.054-37.729l-27.922 12.045-.091-9.375v23.218l27.981-11.849.032 9.179-27.922 12.045-.091-9.375v11.91c-.94 0-3.393 1.06-3.478 2.796-.085 1.735 1.061 2.318 2.949 2.605 5.941 5.294 9.967 4.692 11.156 5.079.257 1.822.598 3.514 3.037 3.514 2.221 0 3.032-1.736 3.204-3.646 3.162-.042 8.462-2.038 10.6-4.947 1.159-.098 3.459-.173 3.455-2.604-.004-2.435-2.856-2.866-2.856-2.866z" fill="url(#c)"/><path d="m34.325 11.754c.049-3.092-1.949-2.017-2.649-2.778-5.043-5.476-10.943-4.514-11.028-5.208-.086-.694-.214-3.472-3.204-3.472-3.209 0-3.037 3.472-3.037 3.472-5.386.52-9.576 4.38-11.113 5.122-1.538.174-2.997.194-2.997 2.691 0 2.712 3.483 3.125 3.483 3.125v5.086l9.538-5.086h18.443c1.176-.293 2.52-.217 2.564-2.952z" fill="url(#d)"/></svg>

<?xml version="1.0" encoding="utf-8"?>
<!-- Generator: Adobe Illustrator 16.0.0, SVG Export Plug-In . SVG Version: 6.00 Build 0)  -->
<!DOCTYPE svg PUBLIC "-//W3C//DTD SVG 1.1//EN" "http://www.w3.org/Graphics/SVG/1.1/DTD/svg11.dtd">
<svg version="1.1" id="Layer_1" xmlns="http://www.w3.org/2000/svg" xmlns:xlink="http://www.w3.org/1999/xlink" x="0px" y="0px"
	 width="35px" height="92px" viewBox="0 0 35 92" enable-background="new 0 0 35 92" xml:space="preserve">
<g>
	<linearGradient id="SVGID_1_" gradientUnits="userSpaceOnUse" x1="3.7798" y1="28.6436" x2="31.793" y2="28.6436">
		<stop  offset="0.0545" style="stop-color:#7E5A43"/>
		<stop  offset="0.523" style="stop-color:#CC9966"/>
		<stop  offset="0.9415" style="stop-color:#7E5A43"/>
	</linearGradient>
	<path fill="url(#SVGID_1_)" d="M31.793,39.839c-0.018-12.57-0.032-23.756-0.032-25.133v1.963L3.78,28.839v13.743l27.981-11.849
		L31.793,39.839z"/>
	<linearGradient id="SVGID_2_" gradientUnits="userSpaceOnUse" x1="0.2979" y1="65.8086" x2="34.7031" y2="65.8086">
		<stop  offset="0.0545" style="stop-color:#7E5A43"/>
		<stop  offset="0.523" style="stop-color:#CC9966"/>
		<stop  offset="0.9415" style="stop-color:#7E5A43"/>
	</linearGradient>
	<path fill="url(#SVGID_2_)" d="M31.847,77.641c0,0-0.028-20.192-0.054-37.729L3.871,51.957L3.78,42.582V65.8l27.981-11.849
		l0.032,9.179L3.871,75.175L3.78,65.8v11.91c-0.94,0-3.393,1.06-3.478,2.796c-0.085,1.735,1.061,2.318,2.949,2.605
		c5.941,5.294,9.967,4.692,11.156,5.079c0.257,1.822,0.598,3.514,3.037,3.514c2.221,0,3.032-1.736,3.204-3.646
		c3.162-0.042,8.462-2.038,10.6-4.947c1.159-0.098,3.459-0.173,3.455-2.604C34.699,78.072,31.847,77.641,31.847,77.641z"/>
	<linearGradient id="SVGID_3_" gradientUnits="userSpaceOnUse" x1="0.2969" y1="10.0439" x2="34.3262" y2="10.0439">
		<stop  offset="0.0545" style="stop-color:#7E5A43"/>
		<stop  offset="0.523" style="stop-color:#CC9966"/>
		<stop  offset="0.9415" style="stop-color:#7E5A43"/>
	</linearGradient>
	<path fill="url(#SVGID_3_)" d="M34.325,11.754c0.049-3.092-1.949-2.017-2.649-2.778C26.633,3.5,20.733,4.462,20.648,3.768
		c-0.086-0.694-0.214-3.472-3.204-3.472c-3.209,0-3.037,3.472-3.037,3.472C9.021,4.288,4.831,8.148,3.294,8.89
		c-1.538,0.174-2.997,0.194-2.997,2.691c0,2.712,3.483,3.125,3.483,3.125v5.086l9.538-5.086h18.443
		C32.937,14.413,34.281,14.489,34.325,11.754z"/>
</g>
</svg>
